src/extras-openmoji/objects/E156.svg

<?xml version="1.0" encoding="UTF-8"?>
<svg id="emoji" xmlns="http://www.w3.org/2000/svg" viewBox="0 0 72 72">
  <g id="grid">
    <path d="m68,4v64H4V4h64Zm4-4H0v72h72V0Z" fill="#b3b3b3"/>
    <path d="m12.923,10.9583h46.1539c.51,0,.9992.2026,1.3598.5633.3607.3606.5633.8498.5633,1.3598v46.1538c0,.51-.2026.9992-.5633,1.3599-.3606.3606-.8498.5632-1.3598.5632H12.9231c-.51,0-.9992-.2026-1.3598-.5632-.3607-.3607-.5633-.8499-.5633-1.3599V12.8813c0-.51.2026-.9991.5632-1.3598.3607-.3606.8498-.5632,1.3598-.5632h0Z" fill="none" stroke="#00a5ff" stroke-miterlimit="10" stroke-width=".1"/>
    <path d="m53.7463,4H18.2537c-1.2447,0-2.2537,1.009-2.2537,2.2537v59.4926c0,1.2447,1.009,2.2537,2.2537,2.2537h35.4926c1.2447,0,2.2537-1.009,2.2537-2.2537V6.2537c0-1.2447-1.009-2.2537-2.2537-2.2537Z" fill="none" stroke="#00a5ff" stroke-miterlimit="10" stroke-width=".1"/>
    <path d="m68,53.7463V18.2537c0-1.2447-1.009-2.2537-2.2537-2.2537H6.2537c-1.2447,0-2.2537,1.009-2.2537,2.2537v35.4926c0,1.2447,1.009,2.2537,2.2537,2.2537h59.4926c1.2447,0,2.2537-1.009,2.2537-2.2537Z" fill="none" stroke="#00a5ff" stroke-miterlimit="10" stroke-width=".1"/>
    <path d="m36,65c16.0163,0,29-12.9837,29-29S52.0163,7,36,7,7,19.9837,7,36s12.9837,29,29,29Z" fill="none" stroke="#00a5ff" stroke-miterlimit="10" stroke-width=".1"/>
  </g>
  <g id="color">
    <path d="m38.8772,53.9048v-13h15.3302v9l-15.3302,4Z" fill="#fff"/>
    <path d="m40.1565,19.9078h12.8551c.6623,0,1.1992.5324,1.1992,1.1891v20.8487h-15.4498v-20.6542c0-.7642.6248-1.3837,1.3954-1.3837Z" fill="#a57939"/>
    <path d="m38.9818,54.1131l-.0739,3.3387c0,1.1046.2372,1.613,1.3418,1.613h11.866c1.1046,0,1.9452-.007,1.9452-1.1116l-.0278-3.4181.0278-4.0572-15.0792,3.6352Z" fill="#6a462f" fill-rule="evenodd"/>
    <path d="m22,13.5283c0,3.0274-2.2386,8.4717-5,8.4717s-5-5.4443-5-8.4717,2.2386-2.4917,5-2.4917,5-.5358,5,2.4917Z" fill="#a57939"/>
    <rect x="44" y="14" width="5" height="5" fill="#d0cfce"/>
  </g>
  <g id="line">
    <path d="m41,53.7941l11-2.5882" fill="none" stroke="#000" stroke-linecap="round" stroke-linejoin="round" stroke-width="2"/>
    <path d="m38,21c0-1.1046.8954-2,2-2h13c1.1046,0,2,.8954,2,2v37c0,1.1046-.8954,2-2,2h-13c-1.1046,0-2-.8954-2-2V21Z" fill="none" stroke="#000" stroke-width="2"/>
    <rect x="44" y="14" width="5" height="5" fill="none" stroke="#000" stroke-linejoin="round" stroke-width="2"/>
    <path d="m44,16h-6l-15,9h-6v-3" fill="none" stroke="#000" stroke-linejoin="round" stroke-width="2"/>
    <path d="m22,13.5283c0,3.0274-2.2386,8.4717-5,8.4717s-5-5.4443-5-8.4717,2.2386-2.4917,5-2.4917,5-.5358,5,2.4917Z" fill="none" stroke="#000" stroke-width="2"/>
    <line x1="39" y1="41" x2="52" y2="41" fill="none" stroke="#000" stroke-linecap="round" stroke-width="2"/>
  </g>
</svg>

<svg id="emoji" viewBox="0 0 72 72" xmlns="http://www.w3.org/2000/svg">
  <g id="grid">
    <path fill="#B3B3B3" d="M68 4V68H4V4H68ZM72 0H0V72H72V0Z"/>
    <path fill="none" stroke="#00A5FF" stroke-miterlimit="10" stroke-width="0.1" d="M12.923 10.9583H59.0769C59.5869 10.9583 60.0761 11.1609 60.4367 11.5216C60.7974 11.8822 61 12.3714 61 12.8814V59.0352C61 59.5452 60.7974 60.0344 60.4367 60.3951C60.0761 60.7557 59.5869 60.9583 59.0769 60.9583H12.9231C12.4131 60.9583 11.9239 60.7557 11.5633 60.3951C11.2026 60.0344 11 59.5452 11 59.0352V12.8813C11 12.3713 11.2026 11.8822 11.5632 11.5215C11.9239 11.1609 12.413 10.9583 12.923 10.9583V10.9583Z"/>
    <path fill="none" stroke="#00A5FF" stroke-miterlimit="10" stroke-width="0.1" d="M53.7463 4H18.2537C17.009 4 16 5.00902 16 6.2537V65.7463C16 66.991 17.009 68 18.2537 68H53.7463C54.991 68 56 66.991 56 65.7463V6.2537C56 5.00902 54.991 4 53.7463 4Z"/>
    <path fill="none" stroke="#00A5FF" stroke-miterlimit="10" stroke-width="0.1" d="M68 53.7463V18.2537C68 17.009 66.991 16 65.7463 16L6.2537 16C5.00902 16 4 17.009 4 18.2537V53.7463C4 54.991 5.00902 56 6.2537 56L65.7463 56C66.991 56 68 54.991 68 53.7463Z"/>
    <path fill="none" stroke="#00A5FF" stroke-miterlimit="10" stroke-width="0.1" d="M36 65C52.0163 65 65 52.0163 65 36C65 19.9837 52.0163 7 36 7C19.9837 7 7 19.9837 7 36C7 52.0163 19.9837 65 36 65Z"/>
  </g>
  <g id="color">
    <path fill="#fff" d="M38 54V41H55V50L38 54Z"/>
    <path fill="#A57939" d="M38 19H55V42H38V19Z"/>
    <g>
      <path fill="#6A462F" fill-rule="evenodd" d="M38 54.5V58C38 59.1046 38.8954 60 40 60H53C54.1046 60 55 59.1046 55 58V54.5V50.5L38 54.5Z" clip-rule="evenodd"/>
      <path fill="#6A462F" d="M38 54.5L37.771 53.5266C37.3192 53.6329 37 54.0359 37 54.5H38ZM55 50.5H56C56 50.1945 55.8604 49.9058 55.6209 49.7161C55.3814 49.5264 55.0683 49.4566 54.771 49.5266L55 50.5ZM39 58V54.5H37V58H39ZM40 59C39.4477 59 39 58.5523 39 58H37C37 59.6569 38.3431 61 40 61V59ZM53 59H40V61H53V59ZM54 58C54 58.5523 53.5523 59 53 59V61C54.6569 61 56 59.6569 56 58H54ZM54 54.5V58H56V54.5H54ZM54 50.5V54.5H56V50.5H54ZM38.229 55.4734L55.229 51.4734L54.771 49.5266L37.771 53.5266L38.229 55.4734Z"/>
      <path fill="#6A462F" d="M38 54.5L37.771 53.5266C37.3192 53.6329 37 54.0359 37 54.5H38ZM55 50.5H56C56 50.1945 55.8604 49.9058 55.6209 49.7161C55.3814 49.5264 55.0683 49.4566 54.771 49.5266L55 50.5ZM39 58V54.5H37V58H39ZM40 59C39.4477 59 39 58.5523 39 58H37C37 59.6569 38.3431 61 40 61V59ZM53 59H40V61H53V59ZM54 58C54 58.5523 53.5523 59 53 59V61C54.6569 61 56 59.6569 56 58H54ZM54 54.5V58H56V54.5H54ZM54 50.5V54.5H56V50.5H54ZM38.229 55.4734L55.229 51.4734L54.771 49.5266L37.771 53.5266L38.229 55.4734Z"/>
    </g>
    <path fill="#A57939" d="M22 13.5283C22 16.5557 19.7614 22 17 22C14.2386 22 12 16.5557 12 13.5283C12 10.5008 14.2386 11.0366 17 11.0366C19.7614 11.0366 22 10.5008 22 13.5283Z"/>
    <rect x="44" y="14" width="5" height="5" fill="#d0cfce"/>
  </g>
  <g id="line">
    <path fill="none" stroke="#000" stroke-linecap="round" stroke-linejoin="round" stroke-width="2" d="M41 53.7941L52 51.2059"/>
    <path fill="none" stroke="#000" stroke-width="2" d="M38 21C38 19.8954 38.8954 19 40 19H53C54.1046 19 55 19.8954 55 21V58C55 59.1046 54.1046 60 53 60H40C38.8954 60 38 59.1046 38 58V21Z"/>
    <rect x="44" y="14" width="5" height="5" fill="none" stroke="#000" stroke-linejoin="round" stroke-width="2"/>
    <path fill="none" stroke="#000" stroke-linejoin="round" stroke-width="2" d="M44 16H38L23 25H17V22"/>
    <path fill="none" stroke="#000" stroke-width="2" d="M22 13.5283C22 16.5557 19.7614 22 17 22C14.2386 22 12 16.5557 12 13.5283C12 10.5008 14.2386 11.0366 17 11.0366C19.7614 11.0366 22 10.5008 22 13.5283Z"/>
    <line x1="39" x2="52" y1="41" y2="41" stroke="#000" stroke-linecap="round" stroke-width="2"/>
  </g>
</svg>
